X: 11751
Q: "Bold and with spirit."
M: C
L: 1/8
K: D
c2B>B A2^G>G | A2z2 z2A2 |
=f3d d3d | (c2A2) z2A2 |\
^f3d d3d | (c2A2) z !segno!:|\
|: A B>c |\
d2d>d (fe)dc | B2 g4 f>e |\
d2A>A A2B>c | d2z2 z2 !segno!:|


